X:8
T: Karfreitagslied (Band 1), S. 28
N: P0782
O: Lothringen
S: PINCK, Louis: Verklingende Weisen, Bd 1, Metz 1928]
R: geistliche, religiöse Lieder]
M: 4/4
L: 1/8
K: D
FF | E2D2D2EE | F2GGA2
F2 | G2AAB2B2 | AGF2E2
A2 | AGF2G2G2 | FED2E2
A2 | B2c2d2G2 | F2E2D2

